X:1
T:Come All You Fair and Tender Ladies
F:http://www.folkinfo.org/songs
M:3/2
L:1/8
K:Ddor
G2A2c2|d6G2e2c2|A2G4G2A2c2|d6(Ac) (ed) c2|A6A2G2(ED)|C4D3D E2D2|E2G4D2E2G2|G6(BA) G2E2|D6|]
w:Come all you fair and ten-der la-dies Take warn-ing how you_ court_ young men They're like bright_ stars of a sum-mer's morn-ing They'll first ap-pear and_ then be gone
